X:126
T: ICH BIN EIN SCHREINER
N: B0617
O: Europa, Mitteleuropa, Deutschland, Wetzlar, Schwalbach
R: Staende -, Handwerker - Lied, Schreiner
M: 4/4
L: 1/8
K: C
E,F, | G,3G,G,2C2 | G,3G,G,2
G,2 | F,3E,F,2G,2 | E,4z2
C2 | C3B,A,2B,2 | C3B,A,2
C2 | D3CB,2A,2 | G,4z2
G,2 | G,2B,2D2C2 | B,2A,2G,2
G,2 | F,3E,F,2G,2 | E,4z2
C2 | C3B,A,2B,2 | C2B,2A,2
C2 | D3CB,2A,2 | G,4z2
G,2 | E6C2 | G,6G,2 | F,3E,F,2G,2 | E,2G,2C2
D2 | E6C2 | G,6G,2 | F,3E,F,2G,2 | E,4z2

